src/lib/packages/icons/src/assets/filled/note-list-square.svg

<svg xmlns="http://www.w3.org/2000/svg" width="24" height="24" fill="none"><path fill="currentColor" d="M17.625 3H6.375C4.125 3 3 4.125 3 6.375v11.25C3 19.875 4.125 21 6.375 21h11.25C19.875 21 21 19.875 21 17.625V6.375C21 4.125 19.875 3 17.625 3ZM8 15.251a.75.75 0 1 1 0-1.5.75.75 0 0 1 0 1.5Zm0-5.001a.75.75 0 1 1 0-1.5.75.75 0 0 1 0 1.5Zm8 5h-5a.75.75 0 0 1 0-1.5h5a.75.75 0 0 1 0 1.5Zm0-5h-5a.75.75 0 0 1 0-1.5h5a.75.75 0 0 1 0 1.5Z"/></svg>

<svg width="24" height="24" viewBox="0 0 24 24" fill="none" xmlns="http://www.w3.org/2000/svg">
<path d="M17.625 3H6.375C4.125 3 3 4.125 3 6.375V17.625C3 19.875 4.125 21 6.375 21H17.625C19.875 21 21 19.875 21 17.625V6.375C21 4.125 19.875 3 17.625 3ZM8 15.251C7.586 15.251 7.25 14.915 7.25 14.501C7.25 14.087 7.586 13.751 8 13.751C8.414 13.751 8.75 14.087 8.75 14.501C8.75 14.916 8.414 15.251 8 15.251ZM8 10.25C7.586 10.25 7.25 9.914 7.25 9.5C7.25 9.086 7.586 8.75 8 8.75C8.414 8.75 8.75 9.086 8.75 9.5C8.75 9.914 8.414 10.25 8 10.25ZM16 15.25H11C10.586 15.25 10.25 14.914 10.25 14.5C10.25 14.086 10.586 13.75 11 13.75H16C16.414 13.75 16.75 14.086 16.75 14.5C16.75 14.914 16.414 15.25 16 15.25ZM16 10.25H11C10.586 10.25 10.25 9.914 10.25 9.5C10.25 9.086 10.586 8.75 11 8.75H16C16.414 8.75 16.75 9.086 16.75 9.5C16.75 9.914 16.414 10.25 16 10.25Z" fill="currentColor"/>
</svg>
